Hatter-kde/status/24/night-light-disabled-10-symbolic.svg

<?xml version="1.0" encoding="UTF-8" standalone="no"?>
<svg
   xmlns:dc="http://purl.org/dc/elements/1.1/"
   xmlns:cc="http://creativecommons.org/ns#"
   xmlns:rdf="http://www.w3.org/1999/02/22-rdf-syntax-ns#"
   xmlns:svg="http://www.w3.org/2000/svg"
   xmlns="http://www.w3.org/2000/svg"
   version="1.1"
   width="24"
   height="24"
   id="svg4031">
  <defs
     id="defs4033" />
  <metadata
     id="metadata4036">
    <rdf:RDF>
      <cc:Work
         rdf:about="">
        <dc:format>image/svg+xml</dc:format>
        <dc:type
           rdf:resource="http://purl.org/dc/dcmitype/StillImage" />
        <dc:title></dc:title>
      </cc:Work>
    </rdf:RDF>
  </metadata>
  <path
     id="path28"
     d="M 11.25,3 C 11.111929,3 11,3.1119288 11,3.25 v 1.5 C 11,4.889 11.112,5 11.25,5 h 0.5 C 11.888071,5 12,4.8880712 12,4.75 V 3.25 C 12,3.1119288 11.888071,3 11.75,3 Z m 6.611328,2.53125 c -0.0085,2.193e-4 -0.01696,8.712e-4 -0.02539,0.00195 -0.05623,0.00658 -0.108569,0.032063 -0.148438,0.072266 l -1.060547,1.0605468 c -0.09829,0.098288 -0.09758,0.255935 0,0.3535156 l 0.353516,0.3535157 c 0.09763,0.097605 0.255888,0.097605 0.353515,0 L 18.394531,6.3125 c 0.09761,-0.097627 0.09761,-0.2558889 0,-0.3535156 L 18.041016,5.6054688 C 17.993586,5.5574995 17.928784,5.5307335 17.861328,5.53125 Z M 11.5,7 C 8.465286,7 6,9.4652894 6,12.5 6,15.534712 8.465286,18 11.5,18 14.534708,18 17.000006,15.534712 17,12.5 17,9.4652894 14.534708,7 11.5,7 Z m -0.09961,1.0625 h 0.002 c 0.02799,-2.639e-4 0.05599,-2.639e-4 0.08398,0 h 0.0059 c -0.936014,0.6992556 -1.488135,1.7984324 -1.490235,2.966797 -0.0018,2.05087 1.660067,3.714484 3.710938,3.714844 0.664239,-0.0019 1.315806,-0.181961 1.886718,-0.521485 -1.356612,3.269239 -5.8003174,3.726131 -7.7939092,0.801578 C 5.812108,12.099681 7.8615057,8.1303938 11.400391,8.0625 Z M 2.25,12 C 2.1119288,12 2,12.111929 2,12.25 v 0.5 C 2,12.889 2.112,13 2.25,13 h 1.5 C 3.8880712,13 4,12.888071 4,12.75 v -0.5 C 4,12.111929 3.8880712,12 3.75,12 Z m 17,0 C 19.111929,12 19,12.111929 19,12.25 v 0.5 c 0,0.139 0.112,0.25 0.25,0.25 h 1.5 C 20.888071,13 21,12.888071 21,12.75 v -0.5 C 21,12.111929 20.888071,12 20.75,12 Z M 5.8398438,17.552734 c -0.065423,0.001 -0.1278305,0.02768 -0.1738282,0.07422 L 4.6054688,18.6875 c -0.098288,0.09829 -0.097581,0.255935 0,0.353516 l 0.3535156,0.353515 c 0.097627,0.09761 0.2558889,0.09761 0.3535156,0 l 1.0605469,-1.060547 c 0.097605,-0.09763 0.097605,-0.255888 0,-0.353515 L 6.0195312,17.626953 c -0.047429,-0.04797 -0.1122313,-0.07474 -0.1796874,-0.07422 z m 11.3125002,0 c -0.06474,0.0015 -0.126359,0.02815 -0.171875,0.07422 l -0.353516,0.353516 c -0.09829,0.09829 -0.09758,0.255934 0,0.353515 l 1.060547,1.060547 c 0.09763,0.09761 0.255889,0.09761 0.353516,0 l 0.353515,-0.353515 c 0.09761,-0.09763 0.09761,-0.255889 0,-0.353516 l -1.060547,-1.060547 c -0.0479,-0.04846 -0.113509,-0.07527 -0.18164,-0.07422 z M 11.25,20 C 11.111929,20 11,20.111929 11,20.25 v 1.5 c 0,0.139 0.112,0.25 0.25,0.25 h 0.5 C 11.888071,22 12,21.888071 12,21.75 v -1.5 C 12,20.111929 11.888071,20 11.75,20 Z"
     style="color:#000000;display:inline;overflow:visible;visibility:visible;opacity:1;vector-effect:none;fill:#f2f2f2;fill-opacity:1;fill-rule:nonzero;stroke:none;stroke-width:1;stroke-linecap:butt;stroke-linejoin:miter;stroke-miterlimit:4;stroke-dasharray:none;stroke-dashoffset:0;stroke-opacity:1;marker:none;enable-background:accumulate" />
  <path
     id="path2"
     d="M 5.3535156,5.2363281 4.4121094,6.1777344 5.7617188,7.5273438 6.703125,6.5859375 Z"
     style="overflow:visible;opacity:1;isolation:auto;mix-blend-mode:normal;vector-effect:none;fill:#f2f2f2;fill-opacity:1;stroke-width:1;stroke-linecap:butt;stroke-linejoin:miter;stroke-miterlimit:4;stroke-dasharray:none;stroke-dashoffset:0;stroke-opacity:1;marker:none" />
</svg>

<?xml version="1.0" encoding="UTF-8"?>
<svg id="svg4031" width="24" height="24" version="1.1" xmlns="http://www.w3.org/2000/svg" xmlns:cc="http://creativecommons.org/ns#" xmlns:dc="http://purl.org/dc/elements/1.1/" xmlns:rdf="http://www.w3.org/1999/02/22-rdf-syntax-ns#">
 <metadata id="metadata4036">
  <rdf:RDF>
   <cc:Work rdf:about="">
    <dc:format>image/svg+xml</dc:format>
    <dc:type rdf:resource="http://purl.org/dc/dcmitype/StillImage"/>
    <dc:title/>
   </cc:Work>
  </rdf:RDF>
 </metadata>
 <path id="path28" d="m11.25 3c-0.13807 0-0.25 0.11193-0.25 0.25v1.5c0 0.139 0.112 0.25 0.25 0.25h0.5c0.13807 0 0.25-0.11193 0.25-0.25v-1.5c0-0.13807-0.11193-0.25-0.25-0.25zm6.6113 2.5312c-0.0085 2.193e-4 -0.01696 8.712e-4 -0.02539 0.00195-0.05623 0.00658-0.10857 0.032063-0.14844 0.072266l-1.0605 1.0605c-0.09829 0.098288-0.09758 0.25594 0 0.35352l0.35352 0.35352c0.09763 0.097605 0.25589 0.097605 0.35352 0l1.0605-1.0605c0.09761-0.097627 0.09761-0.25589 0-0.35352l-0.35352-0.35352c-0.04743-0.047969-0.11223-0.074735-0.17969-0.074219zm-6.3613 1.4688c-3.0347 0-5.5 2.4653-5.5 5.5 0 3.0347 2.4653 5.5 5.5 5.5 3.0347 0 5.5-2.4653 5.5-5.5 0-3.0347-2.4653-5.5-5.5-5.5zm-0.09961 1.0625h2e-3c0.02799-2.639e-4 0.05599-2.639e-4 0.08398 0h0.0059c-0.93601 0.69926-1.4881 1.7984-1.4902 2.9668-0.0018 2.0509 1.6601 3.7145 3.7109 3.7148 0.66424-0.0019 1.3158-0.18196 1.8867-0.52148-1.3566 3.2692-5.8003 3.7261-7.7939 0.80158-1.9937-2.9246 0.055724-6.8938 3.5946-6.9617zm-9.1504 3.9375c-0.13807 0-0.25 0.11193-0.25 0.25v0.5c0 0.139 0.112 0.25 0.25 0.25h1.5c0.13807 0 0.25-0.11193 0.25-0.25v-0.5c0-0.13807-0.11193-0.25-0.25-0.25zm17 0c-0.13807 0-0.25 0.11193-0.25 0.25v0.5c0 0.139 0.112 0.25 0.25 0.25h1.5c0.13807 0 0.25-0.11193 0.25-0.25v-0.5c0-0.13807-0.11193-0.25-0.25-0.25zm-13.41 5.5527c-0.065423 1e-3 -0.12783 0.02768-0.17383 0.07422l-1.0605 1.0605c-0.098288 0.09829-0.097581 0.25594 0 0.35352l0.35352 0.35352c0.097627 0.09761 0.25589 0.09761 0.35352 0l1.0605-1.0605c0.097605-0.09763 0.097605-0.25589 0-0.35352l-0.35352-0.35352c-0.047429-0.04797-0.11223-0.07474-0.17969-0.07422zm11.313 0c-0.06474 0.0015-0.12636 0.02815-0.17188 0.07422l-0.35352 0.35352c-0.09829 0.09829-0.09758 0.25593 0 0.35352l1.0605 1.0605c0.09763 0.09761 0.25589 0.09761 0.35352 0l0.35352-0.35352c0.09761-0.09763 0.09761-0.25589 0-0.35352l-1.0605-1.0605c-0.0479-0.04846-0.11351-0.07527-0.18164-0.07422zm-5.9023 2.4473c-0.13807 0-0.25 0.11193-0.25 0.25v1.5c0 0.139 0.112 0.25 0.25 0.25h0.5c0.13807 0 0.25-0.11193 0.25-0.25v-1.5c0-0.13807-0.11193-0.25-0.25-0.25z" color="#000000" fill="#fff"/>
 <path id="path2" d="m5.3535 5.2363-0.94141 0.94141 1.3496 1.3496 0.94141-0.94141z" color="#bebebe" fill="#fff" style="isolation:auto;mix-blend-mode:normal"/>
</svg>
